**kern	**text	**kern	**text	**kern	**text	**kern	**text	**kern	**text
*staff5	*staff5	*staff4	*staff4	*staff3	*staff3	*staff2	*staff2	*staff1	*staff1
*I"Basso	*	*I"Tenore	*	*I"Alto	*	*I"Soprano II	*	*I"Soprano I	*
=1-	=1-	=1-	=1-	=1-	=1-	=1-	=1-	=1-	=1-
*clefF4	*	*clefGv2	*	*clefGv2	*	*clefG2	*	*clefG2	*
*k[]	*	*k[]	*	*k[]	*	*k[]	*	*k[]	*
*met(c|)	*	*met(c|)	*	*met(c|)	*	*met(c|)	*	*met(c|)	*
*M2/2	*	*M2/2	*	*M2/2	*	*M2/2	*	*M2/2	*
1r	.	1r	.	1r	.	1r	.	[1a	Sic-
=2	=2	=2	=2	=2	=2	=2	=2	=2	=2
1r	.	1r	.	[1A	Sic-	1r	.	2a/]	.
.	.	.	.	.	.	.	.	2g/	-ut
=3	=3	=3	=3	=3	=3	=3	=3	=3	=3
1r	.	1r	.	2A/]	.	1r	.	1f	o-
.	.	.	.	2B\	-ut	.	.	.	.
=4	=4	=4	=4	=4	=4	=4	=4	=4	=4
[1AA	Sic-	1r	.	[1c	o-	1r	.	1e	-vis
=5	=5	=5	=5	=5	=5	=5	=5	=5	=5
2AA/]	.	1A	Sic-	2c\]	.	1r	.	1f	ad
2BB/	-ut	.	.	[2d\	.	.	.	.	.
=6	=6	=6	=6	=6	=6	=6	=6	=6	=6
1C	o-	1G	-ut	2d\]	.	1r	.	2e/	oc-
.	.	.	.	2c\	-vis	.	.	[2e/	-ci-
=7	=7	=7	=7	=7	=7	=7	=7	=7	=7
1D	-vis	1F	o-	2A/	ad	1r	.	2e/]	.
.	.	.	.	2B\	oc-	.	.	2d/	-si-
=8	=8	=8	=8	=8	=8	=8	=8	=8	=8
1E	ad	1E	-vis	2c\	-ci-	1r	.	1g	-o-
.	.	.	.	2d\	-si-	.	.	.	.
=9	=9	=9	=9	=9	=9	=9	=9	=9	=9
[1AA	oc-	1A	ad	[1e	-o-	1r	.	2c/	-nem
.	.	.	.	.	.	.	.	[2c/	ad
=10	=10	=10	=10	=10	=10	=10	=10	=10	=10
2AA/]	.	1A	oc-	2e\]	.	1r	.	2c/]	.
2BB/	.	.	.	2d\	-nem	.	.	2d/	oc-
=11	=11	=11	=11	=11	=11	=11	=11	=11	=11
!!linebreak:original
2C/	-ci-	2A/	-ci-	1c	du-	1r	.	2e/	-ci-
2D\	-si-	2A/	-si-	.	.	.	.	2f/	-si-
=12	=12	=12	=12	=12	=12	=12	=12	=12	=12
1E	-o-	1G	-o-	2.B\	.	1r	.	1g	-o-
.	.	.	.	4c\	.	.	.	.	.
=13	=13	=13	=13	=13	=13	=13	=13	=13	=13
1D	-nem	[1A	-nem	4d\	.	1r	.	1f	-nem
.	.	.	.	8c\L	.	.	.	.	.
.	.	.	.	8B\J	.	.	.	.	.
.	.	.	.	4A/	.	.	.	.	.
.	.	.	.	4B\	.	.	.	.	.
=14	=14	=14	=14	=14	=14	=14	=14	=14	=14
1C	du-	1A]	.	4c\	.	1r	.	1e	.
.	.	.	.	4B\	.	.	.	.	.
.	.	.	.	2A/	.	.	.	.	.
=15	=15	=15	=15	=15	=15	=15	=15	=15	=15
[1BB	-ctus	[1B	du-	2A/	.	1r	.	[1d	du-
.	.	.	.	4G#i/	.	.	.	.	.
.	.	.	.	4F#/	.	.	.	.	.
=16	=16	=16	=16	=16	=16	=16	=16	=16	=16
1BB]	.	2B\]	.	2G#i/	.	1r	.	2d/]	.
.	.	2B\	-ctus	2G#/	-ctus	.	.	2d/	-ctus
=17	=17	=17	=17	=17	=17	=17	=17	=17	=17
1AA	est,	1E	est,	1A	est,	1r	.	1c	est,
=18	=18	=18	=18	=18	=18	=18	=18	=18	=18
2r	.	2r	.	2r	.	1r	.	2r	.
[2AA/	et	[2E/	et	[2A/	et	.	.	[2c/	et
=19	=19	=19	=19	=19	=19	=19	=19	=19	=19
2AA/]	.	2E/]	.	2A/]	.	1r	.	2c/]	.
2D\	dum	2F/	dum	2A/	dum	.	.	2d/	dum
=20	=20	=20	=20	=20	=20	=20	=20	=20	=20
1C	ma-	1G	ma-	1c	ma-	1r	.	1e	ma-
=21	=21	=21	=21	=21	=21	=21	=21	=21	=21
2GG/	-le	2G/	-le	2B\	-le	1r	.	2d/	-le
[2C/	tra-	[2G/	tra-	[2c\	tra-	.	.	[2e/	tra-
=22	=22	=22	=22	=22	=22	=22	=22	=22	=22
!!pagebreak:original
2C/]	.	2G/]	.	2c\]	.	1r	.	2e/]	.
2E\	-cta-	2G/	-cta-	2B\	-cta-	.	.	2g/	-cta-
=23	=23	=23	=23	=23	=23	=23	=23	=23	=23
1D	-re-	2A/	-re-	1d	-re-	1r	.	1f	-re-
.	.	2B\	.	.	.	.	.	.	.
=24	=24	=24	=24	=24	=24	=24	=24	=24	=24
2C/	-tur,	2c\	-tur,	2G/	-tur,	1r	.	2e/	-tur,
[2C/	non	[2G/	non	[2c\	non	.	.	[2e/	non
=25	=25	=25	=25	=25	=25	=25	=25	=25	=25
2C/]	.	2G/]	.	2c\]	.	1r	.	2e/]	.
2F\	a-	2A/	a-	2c\	a-	.	.	2f/	a-
=26	=26	=26	=26	=26	=26	=26	=26	=26	=26
2.E\	-pe-	2.B\	-pe-	2.e\	-pe-	1r	.	2.g/	-pe-
4E\	-ru-	4B\	-ru-	4e\	-ru-	.	.	4g/	-ru-
=27	=27	=27	=27	=27	=27	=27	=27	=27	=27
2E\	-it	2c\	-it	2e\	-it	1r	.	2g/	-it
2C/	os	2c\	os	2e\	os	.	.	2g/	os
=28	=28	=28	=28	=28	=28	=28	=28	=28	=28
1G	su-	1B	su-	1d	su-	1r	.	1g	su-
=29	=29	=29	=29	=29	=29	=29	=29	=29	=29
2C/	-um:	2c\	-um:	2e\	-um:	1r	.	2g/	-um:
[2F\	tra-	[2A/	tra-	[2c\	tra-	.	.	[2f/	tra-
=30	=30	=30	=30	=30	=30	=30	=30	=30	=30
2F\]	.	2A/]	.	2c\]	.	1r	.	2f/]	.
2C/	-di-	2G/	-di-	2c\	-di-	.	.	2e/	-di-
=31	=31	=31	=31	=31	=31	=31	=31	=31	=31
1C	-tur	1G	-tur	1c	-tur	1r	.	1e	-tur
=32	=32	=32	=32	=32	=32	=32	=32	=32	=32
1D	est	1F	est	1A	est	1r	.	1d	est
=33	=33	=33	=33	=33	=33	=33	=33	=33	=33
!!linebreak:original
1AA	ad	1E	ad	1A	ad	1r	.	1c#	ad
=34	=34	=34	=34	=34	=34	=34	=34	=34	=34
1D	mor-	1F	mor-	1A	mor-	1r	.	1d	mor-
=35	=35	=35	=35	=35	=35	=35	=35	=35	=35
[1AA	-tem,	[1E	-tem,	[1A	-tem,	1r	.	[1c#	-tem,
=36	=36	=36	=36	=36	=36	=36	=36	=36	=36
1AA]	.	1E]	.	1A]	.	1r	.	1c#]	.
=37||	=37||	=37||	=37||	=37||	=37||	=37||	=37||	=37||	=37||
2.AA/	Ut	2.A/	Ut	2.c#\	Ut	1r	.	2.e/	Ut
4AA/	vi-	4A/	vi-	4c#\	vi-	.	.	4e/	vi-
=38	=38	=38	=38	=38	=38	=38	=38	=38	=38
2AA/	-vi-	2A/	-vi-	2c#\	-vi-	1r	.	2e/	-vi-
2D\	-fi-	2A/	-fi-	2d\	-fi-	.	.	2f/	-fi-
=39	=39	=39	=39	=39	=39	=39	=39	=39	=39
1C	-ca-	1c	-ca-	1e	-ca-	1r	.	1g	-ca-
=40	=40	=40	=40	=40	=40	=40	=40	=40	=40
2GG/	-ret	2B\	-ret	2d\	-ret	1r	.	2g/	-ret
[2C/	po-	[2c\	po-	[2e\	po-	.	.	[2g/	po-
=41	=41	=41	=41	=41	=41	=41	=41	=41	=41
2C/]	.	2c\]	.	2e\]	.	1r	.	2g/]	.
2D\	-pu-	2A/	-pu-	2d\	-pu-	.	.	2f/	-pu-
=42	=42	=42	=42	=42	=42	=42	=42	=42	=42
1E	-lum	1G	-lum	2B\	-lum	1r	.	1e	-lum
.	.	.	.	[2c\	su-	.	.	.	.
=43	=43	=43	=43	=43	=43	=43	=43	=43	=43
[1F	su-	1F	su-	2c\]	.	1r	.	[1a	su-
.	.	.	.	4B\	.	.	.	.	.
.	.	.	.	4A/	.	.	.	.	.
=44	=44	=44	=44	=44	=44	=44	=44	=44	=44
1F]	.	1A	.	2c\	.	1r	.	1a]	.
.	.	.	.	2d\	.	.	.	.	.
=45	=45	=45	=45	=45	=45	=45	=45	=45	=45
[1E	-um.	[1B	-um.	[1e	-um.	1r	.	[1g#	-um.
=46	=46	=46	=46	=46	=46	=46	=46	=46	=46
1E]	.	1B]	.	1e]	.	1r	.	1g#]	.
!!linebreak:original
=47||	=47||	=47||	=47||	=47||	=47||	=47||	=47||	=47||	=47||
!!linebreak:original
1r	.	1r	.	[1A	Tra-	[1a	Tra-	[1cc	Tra-
=48	=48	=48	=48	=48	=48	=48	=48	=48	=48
1r	.	1r	.	2A/]	.	2a/]	.	2cc\]	.
.	.	.	.	2E/	-di-	2g/	-di-	2b\	-di-
=49	=49	=49	=49	=49	=49	=49	=49	=49	=49
1r	.	1r	.	2F/	-dit	2f/	-dit	2a/	-dit
.	.	.	.	2c\	in	[2e/	in	2g/	in
=50	=50	=50	=50	=50	=50	=50	=50	=50	=50
1r	.	1r	.	1d	mor-	2e/]	.	1f	mor-
.	.	.	.	.	.	[2d/	mor-	.	.
=51	=51	=51	=51	=51	=51	=51	=51	=51	=51
1r	.	1r	.	1A	-tem	2d/]	.	1e	-tem
.	.	.	.	.	.	2c#/	-tem	.	.
=52	=52	=52	=52	=52	=52	=52	=52	=52	=52
1r	.	1r	.	[1A	a-	2r	.	[1e	a-
.	.	.	.	.	.	[2c#/	a-	.	.
=53	=53	=53	=53	=53	=53	=53	=53	=53	=53
1r	.	1r	.	2A/]	.	2c#/]	.	2e/]	.
.	.	.	.	2d\	-ni-	2d/	-ni-	2f/	-ni-
=54	=54	=54	=54	=54	=54	=54	=54	=54	=54
1r	.	1r	.	1c	-mam	1e	-mam	2g/	-mam
.	.	.	.	.	.	.	.	[2a/	su-
=55	=55	=55	=55	=55	=55	=55	=55	=55	=55
!!pagebreak:original
1r	.	1r	.	2.d\	su-	2.f/	su-	4a/]	.
.	.	.	.	.	.	.	.	4g/	.
.	.	.	.	.	.	.	.	2f/	.
.	.	.	.	4c\	.	4e/	.	.	.
=56	=56	=56	=56	=56	=56	=56	=56	=56	=56
1r	.	1r	.	1B-	.	4d/	.	4f/	.
.	.	.	.	.	.	4e/	.	4e/	.
.	.	.	.	.	.	[2f/	.	2d/	.
=57	=57	=57	=57	=57	=57	=57	=57	=57	=57
1r	.	1r	.	1A	-am,	2f/]	.	2d/	.
.	.	.	.	.	.	2e/	-am,	2c#/	-am,
=58	=58	=58	=58	=58	=58	=58	=58	=58	=58
1r	.	1r	.	1r	.	2r	.	1r	.
.	.	.	.	.	.	[2g/	et	.	.
=59	=59	=59	=59	=59	=59	=59	=59	=59	=59
1r	.	1r	.	1c	et	2g/]	.	1e	et
.	.	.	.	.	.	[2a/	in-	.	.
=60	=60	=60	=60	=60	=60	=60	=60	=60	=60
1r	.	1r	.	1d	in-	2a/]	.	1f	in-
.	.	.	.	.	.	2b\	-ter	.	.
=61	=61	=61	=61	=61	=61	=61	=61	=61	=61
1r	.	1r	.	2e\	-ter	1cc	sce-	2g/	-ter
.	.	.	.	[2f\	sce-	.	.	[2a/	sce-
=62	=62	=62	=62	=62	=62	=62	=62	=62	=62
1r	.	1r	.	2f\]	.	2b\	-le-	2a/]	.
.	.	.	.	2e\	-le-	[2cc\	-ra-	2g/	-le-
=63	=63	=63	=63	=63	=63	=63	=63	=63	=63
1r	.	1r	.	1f	-ra-	4cc\]	.	1a	-ra-
.	.	.	.	.	.	4b\	.	.	.
.	.	.	.	.	.	[2a/	.	.	.
=64	=64	=64	=64	=64	=64	=64	=64	=64	=64
1r	.	1r	.	1e	-tos	2a/]	.	1b	-tos
.	.	.	.	.	.	2g/	-tos	.	.
=65	=65	=65	=65	=65	=65	=65	=65	=65	=65
!!linebreak:original
1r	.	1r	.	[1A	re-	2r	.	[1cc	re-
.	.	.	.	.	.	[2e/	re-	.	.
=66	=66	=66	=66	=66	=66	=66	=66	=66	=66
1r	.	1r	.	2A/]	.	2e/]	.	2cc\]	.
.	.	.	.	2F/	-pu-	[2f/	-pu-	2a/	-pu-
=67	=67	=67	=67	=67	=67	=67	=67	=67	=67
1r	.	1r	.	1c	-ta-	2f/]	.	1g	-ta-
.	.	.	.	.	.	[2e/	-ta-	.	.
=68	=68	=68	=68	=68	=68	=68	=68	=68	=68
1r	.	1r	.	1d	-tus	2e/]	.	1f	-tus
.	.	.	.	.	.	2d/	-tus	.	.
=69	=69	=69	=69	=69	=69	=69	=69	=69	=69
1r	.	1r	.	[1A	est.	[1c#	est.	[1e	est.
=70	=70	=70	=70	=70	=70	=70	=70	=70	=70
1r	.	1r	.	1A]	.	1c#]	.	1e]	.
=71||	=71||	=71||	=71||	=71||	=71||	=71||	=71||	=71||	=71||
2.AA/	Ut	2.A/	Ut	2.c#\	Ut	2.e/	Ut	2.e/	Ut
4AA/	vi-	4A/	vi-	4c#\	vi-	4e/	vi-	4e/	vi-
=72	=72	=72	=72	=72	=72	=72	=72	=72	=72
2AA/	-vi-	2A/	-vi-	2c#\	-vi-	2e/	-vi-	2e/	-vi-
2D\	-fi-	2A/	-fi-	2d\	-fi-	2f/	-fi-	2f/	-fi-
=73	=73	=73	=73	=73	=73	=73	=73	=73	=73
1C	-ca-	1c	-ca-	1e	-ca-	1g	-ca-	1g	-ca-
=74	=74	=74	=74	=74	=74	=74	=74	=74	=74
!!linebreak:original
2GG/	-ret	2B\	-ret	2d\	-ret	2g/	-ret	2g/	-ret
[2C/	po-	[2c\	po-	[2e\	po-	[2g/	po-	[2g/	po-
=75	=75	=75	=75	=75	=75	=75	=75	=75	=75
2C/]	.	2c\]	.	2e\]	.	2g/]	.	2g/]	.
2D\	-pu-	2A/	-pu-	2d\	-pu-	2f/	-pu-	2f/	-pu-
=76	=76	=76	=76	=76	=76	=76	=76	=76	=76
1E	-lum	1G	-lum	2B\	-lum	1e	-lum	1e	-lum
.	.	.	.	[2c\	su-	.	.	.	.
=77	=77	=77	=77	=77	=77	=77	=77	=77	=77
[1F	su-	1F	su-	2c\]	.	[1a	su-	[1a	su-
.	.	.	.	4B\	.	.	.	.	.
.	.	.	.	4A/	.	.	.	.	.
=78	=78	=78	=78	=78	=78	=78	=78	=78	=78
1F]	.	1A	.	2c\	.	1a]	.	1a]	.
.	.	.	.	2d\	.	.	.	.	.
=79	=79	=79	=79	=79	=79	=79	=79	=79	=79
[1E	-um.	[1B	-um.	[1e	-um.	[1g#	-um.	[1g#	-um.
=80	=80	=80	=80	=80	=80	=80	=80	=80	=80
1E]	.	1B]	.	1e]	.	1g#]	.	1g#]	.
==	==	==	==	==	==	==	==	==	==
*-	*-	*-	*-	*-	*-	*-	*-	*-	*-
!!!OTL: Sicut ovis 
!!!COM: Ingegneri, Marc' Antonio
!!!CDT: ca. 1535/36-1592-07-01
!!!TXO: Latin
!!!ODT: 
!!!ARL: Klasztor OO. Paulinów na Jasnej Górze
!!!voices:	5
!!title: @{OTL}, @{GTL}, ed. @{ENC}
!!!pag:
!!!GTL: Responsoria in Hebdomada majore
!!!EFL: 
!!!YEM: Creative Commons CC/BY/NC/SA 4.0
!!!ENC: Marcin Konik
!!!END: 2015-0m-dd
!!!EED: Marcin Konik
!!!EEV: 
!!!ONB: Encoded in vim by Marcin Konik
!!!CharacterEncoding: utf-8
!!!RDF**kern: l=long note in original notation
!!!RDF**kern: i=editorial accidental
!!muse2ps: z14jc180F
